img/reg-1.svg

<svg width="110" height="104" viewBox="0 0 110 104" fill="none" xmlns="http://www.w3.org/2000/svg">
<path opacity="0.4" d="M55 103C84.7677 103 109 80.2201 109 51.9995C109 23.7789 84.7677 0.999512 55 0.999512C25.2323 0.999512 1 23.7789 1 51.9995C1 80.2201 25.2323 103 55 103Z" stroke="#6C8CD0" stroke-width="2"/>
<ellipse cx="54.5" cy="51.9995" rx="43.5" ry="41" fill="#5CB3FF"/>
<path d="M55.9474 54.9793V58.7612C54.2325 58.1822 52.3972 58.0046 50.5955 58.2433C48.7939 58.4821 47.0785 59.1302 45.5934 60.1332C44.1084 61.1363 42.8971 62.465 42.0611 64.0078C41.2252 65.5506 40.7891 67.2624 40.7895 68.9995L37 68.9977C36.9994 66.7881 37.5285 64.6076 38.5467 62.6235C39.5649 60.6393 41.0451 58.9041 42.8741 57.5507C44.703 56.1974 46.8321 55.2618 49.0982 54.8158C51.3642 54.3698 53.7071 54.4251 55.9474 54.9775V54.9793ZM52.1579 52.7138C45.8768 52.7138 40.7895 47.8552 40.7895 41.8567C40.7895 35.8581 45.8768 30.9995 52.1579 30.9995C58.4389 30.9995 63.5263 35.8581 63.5263 41.8567C63.5263 47.8552 58.4389 52.7138 52.1579 52.7138ZM52.1579 49.0947C56.3453 49.0947 59.7368 45.8557 59.7368 41.8567C59.7368 37.8576 56.3453 34.6186 52.1579 34.6186C47.9705 34.6186 44.5789 37.8576 44.5789 41.8567C44.5789 45.8557 47.9705 49.0947 52.1579 49.0947ZM63.5263 59.9519V54.5233H67.3158V59.9519H73V63.5709H67.3158V68.9995H63.5263V63.5709H57.8421V59.9519H63.5263Z" fill="#051761"/>
</svg>

<svg width="110" height="104" fill="none" xmlns="http://www.w3.org/2000/svg"><path opacity=".4" d="M55 103c29.768 0 54-22.78 54-51 0-28.221-24.232-51-54-51S1 23.779 1 52c0 28.22 24.232 51 54 51z" stroke="#6C8CD0" stroke-width="2"/><ellipse cx="54.5" cy="51.999" rx="43.5" ry="41" fill="#5CB3FF"/><path d="M55.947 54.98v3.781a11.874 11.874 0 0 0-5.352-.518 11.683 11.683 0 0 0-5.002 1.89 11.025 11.025 0 0 0-3.532 3.875A10.465 10.465 0 0 0 40.79 69L37 68.998c0-2.21.529-4.39 1.547-6.375a14.633 14.633 0 0 1 4.327-5.072 15.495 15.495 0 0 1 6.224-2.735 15.853 15.853 0 0 1 6.85.161v.002zm-3.79-2.266c-6.28 0-11.367-4.859-11.367-10.857C40.79 35.858 45.876 31 52.157 31c6.28 0 11.368 4.858 11.368 10.857 0 5.998-5.087 10.857-11.368 10.857zm0-3.62c4.188 0 7.58-3.238 7.58-7.237 0-4-3.392-7.238-7.58-7.238-4.186 0-7.578 3.239-7.578 7.238 0 3.999 3.392 7.238 7.579 7.238zm11.37 10.858v-5.429h3.789v5.429H73v3.619h-5.684v5.428h-3.79v-5.428h-5.684v-3.62h5.684z" fill="#051761"/></svg>
